public/icons/safety_icon.svg

<svg width="330" height="330" viewBox="0 0 330 330" fill="none" xmlns="http://www.w3.org/2000/svg">
<path d="M144.692 25.9025C145.059 25.8671 145.428 25.8438 145.797 25.8229C156.823 25.2098 181.131 22.8103 189.408 30.7055C191.714 32.9049 192.928 36.0686 193.008 39.2307C213.588 44.605 232.078 56.0207 245.329 72.7618C259.328 90.4623 268.296 115.815 265.636 138.523C269.887 138.658 274.017 138.894 277.465 141.708C281.716 145.173 282.118 151.102 282.648 156.162C283.218 161.592 283.564 167.571 279.811 172.022C276.701 175.714 270.988 177.616 266.496 178.899C255.495 182.04 243.851 182.842 232.553 184.331C214.376 186.726 196.6 189.293 178.303 190.656C166.008 191.763 152.435 191.211 140.098 190.411C123.265 189.32 56.1646 182.23 45.2672 173.758C42.0778 171.279 40.6626 167.527 40.2094 163.616C39.5095 157.576 40.4714 147.816 44.5054 142.932C47.4819 139.328 51.9691 138.819 56.3325 138.416C56.1493 120.364 59.6079 102.578 68.1821 86.5786C81.2757 62.1456 102.767 47.3814 128.863 39.5216C129.499 36.9332 130.213 34.267 131.782 32.0732C134.955 27.6382 139.574 26.6932 144.692 25.9025Z" fill="black"/>
<path d="M147.201 34.459C156.132 33.8724 172.983 32.5802 180.962 35.5069C189.721 38.7172 176.84 89.8636 181.541 99.9928C183.068 101.198 183.052 101.138 184.988 100.955C187.134 99.6207 188.114 98.0915 188.958 95.7804C190.019 92.8762 192.269 56.6041 192.124 51.7786C192.076 50.3892 191.803 49.2827 191.232 48.0114C198.263 49.3855 205.423 52.4769 211.715 55.8504C231.901 66.5734 246.936 84.9618 253.437 106.881C255.663 114.295 259.955 132.388 256.162 139.441C251.927 140.751 247.194 140.132 242.943 141.486C240.998 142.105 240.532 143.183 239.728 144.858C239.993 146.912 240.058 147.372 241.295 149.003C247.692 152.134 259.336 146.449 266.664 147.182C268.778 147.393 270.803 148.213 272.072 149.982C274.355 153.153 274.315 159.9 273.824 163.691C273.599 165.438 273.005 166.676 271.518 167.683C265.21 171.957 232.408 177.51 225.553 173.91C222.403 172.257 219.655 167.275 217.059 164.653C206.211 153.692 191.063 148.183 176.173 145.588C174.469 145.329 172.766 145.112 171.062 144.935C150.629 142.857 125.551 147.281 109.382 160.811C105.025 164.457 102.206 169.826 97.7329 173.346C93.0215 177.054 82.8152 174.609 77.2656 173.867C70.0366 172.899 55.1599 172.149 50.5546 165.574C48.5496 162.711 47.8866 158.956 48.4966 155.536C51.5976 138.162 72.5872 154.612 81.9955 148.032C82.7798 146.373 82.6762 146.009 82.4359 144.163C78.6864 139.766 70.6103 140.365 65.0351 139.672C64.7739 123.227 67.421 107.022 75.0012 92.2936C86.5486 69.8568 105.793 56.0448 129.465 48.5137C129.766 56.2899 131.458 96.3646 134.141 100.134C135.038 101.395 135.465 101.35 136.893 101.628C138.307 101.094 140.111 100.214 140.83 98.7762C143.692 93.0514 134.667 42.3156 139.031 37.2346C141.083 34.8439 144.302 34.7499 147.201 34.459Z" fill="#FED100"/>
<path d="M153.678 153.396L154.3 153.335C172.042 151.66 194.438 156.401 208.332 168.108C211.032 170.387 215.122 174.098 215.412 177.836C201.229 181.03 184.787 181.746 170.234 182.242C148.458 182.423 127.366 181.217 105.851 177.828C106.763 176.547 107.707 175.287 108.68 174.05C119.311 160.662 137.398 155.353 153.678 153.396Z" fill="#FED100"/>
<path d="M153.895 199.87C185.205 196.799 213.025 219.809 215.878 251.139C218.738 282.469 195.539 310.133 164.191 312.775C133.146 315.391 105.809 292.463 102.98 261.435C100.151 230.408 122.89 202.912 153.895 199.87Z" fill="black"/>
<path d="M155.354 208.349C181.918 206.115 205.23 225.939 207.287 252.522C209.344 279.106 189.367 302.283 162.777 304.167C136.429 306.032 113.515 286.281 111.476 259.945C109.436 233.608 129.034 210.564 155.354 208.349Z" fill="#FED100"/>
<path d="M180.368 235.248C181.428 235.265 182.441 235.462 183.486 235.629C185.069 236.928 185.318 237.239 186.025 239.152C185.929 240.149 185.792 241.161 185.27 242.036C182.015 247.474 154.39 276.938 149.909 278.354C145.823 276.339 140.999 269.344 137.759 265.898C135.406 263.737 131.994 260.452 131.923 257.018C131.91 256.383 131.9 255.759 132.365 255.301C133.034 254.641 133.762 254.623 134.644 254.682C141.363 255.133 147.001 262.646 151.177 267.164C160.953 256.571 170.395 245.658 180.368 235.248Z" fill="black"/>
</svg>

<svg xmlns="http://www.w3.org/2000/svg" width="330" height="330" fill="none" viewBox="0 0 330 330"><path fill="#000" d="M144.692 25.903q.551-.052 1.105-.08c11.026-.613 35.334-3.013 43.611 4.883 2.306 2.199 3.52 5.363 3.6 8.525 20.58 5.374 39.07 16.79 52.321 33.53 13.999 17.701 22.967 43.054 20.307 65.762 4.251.135 8.381.371 11.829 3.185 4.251 3.465 4.653 9.394 5.183 14.454.57 5.43.916 11.409-2.837 15.86-3.11 3.692-8.823 5.594-13.315 6.877-11.001 3.141-22.645 3.943-33.943 5.432-18.177 2.395-35.953 4.962-54.25 6.325-12.295 1.107-25.868.555-38.205-.245-16.833-1.091-83.933-8.181-94.83-16.653-3.19-2.479-4.605-6.231-5.059-10.142-.7-6.04.262-15.8 4.296-20.684 2.977-3.604 7.464-4.113 11.828-4.516-.184-18.052 3.275-35.838 11.85-51.837 13.093-24.433 34.584-39.198 60.68-47.057.636-2.589 1.35-5.255 2.919-7.449 3.173-4.435 7.792-5.38 12.91-6.17"/><path fill="#fed100" d="M147.201 34.459c8.931-.587 25.782-1.879 33.761 1.048 8.759 3.21-4.122 54.357.579 64.486 1.527 1.205 1.511 1.145 3.447.962 2.146-1.334 3.126-2.864 3.97-5.175 1.061-2.904 3.311-39.176 3.166-44.001-.048-1.39-.321-2.496-.892-3.768 7.031 1.374 14.191 4.466 20.483 7.84a85.23 85.23 0 0 1 41.722 51.03c2.226 7.414 6.518 25.507 2.725 32.56-4.235 1.31-8.968.691-13.219 2.045-1.945.619-2.411 1.697-3.215 3.372.265 2.054.33 2.514 1.567 4.145 6.397 3.131 18.041-2.554 25.369-1.821 2.114.211 4.139 1.031 5.408 2.8 2.283 3.171 2.243 9.918 1.752 13.709-.225 1.747-.819 2.985-2.306 3.992-6.308 4.274-39.11 9.827-45.965 6.227-3.15-1.653-5.898-6.635-8.494-9.257-10.848-10.961-25.996-16.47-40.886-19.065a109 109 0 0 0-5.111-.653c-20.433-2.078-45.511 2.346-61.68 15.876-4.357 3.646-7.176 9.015-11.65 12.535-4.71 3.708-14.917 1.263-20.466.521-7.23-.968-22.106-1.718-26.711-8.293-2.005-2.863-2.668-6.618-2.058-10.038 3.1-17.374 24.09-.924 33.499-7.504.784-1.659.68-2.023.44-3.869-3.75-4.397-11.826-3.798-17.4-4.491-.262-16.445 2.385-32.65 9.965-47.378 11.548-22.437 30.792-36.25 54.464-43.78.301 7.776 1.993 47.85 4.676 51.62.897 1.261 1.324 1.216 2.752 1.494 1.414-.534 3.218-1.414 3.937-2.852 2.862-5.725-6.163-56.46-1.799-61.541 2.052-2.391 5.271-2.485 8.17-2.776"/><path fill="#fed100" d="m153.678 153.396.622-.061c17.742-1.675 40.138 3.066 54.032 14.773 2.7 2.279 6.79 5.99 7.08 9.728-14.183 3.194-30.625 3.91-45.178 4.406-21.776.181-42.868-1.025-64.383-4.414a99 99 0 0 1 2.829-3.778c10.631-13.388 28.718-18.697 44.998-20.654"/><path fill="#000" d="M153.895 199.87c31.31-3.071 59.13 19.939 61.983 51.269 2.86 31.33-20.339 58.994-51.687 61.636-31.045 2.616-58.382-20.312-61.211-51.34-2.829-31.027 19.91-58.523 50.915-61.565"/><path fill="#fed100" d="M155.354 208.349c26.564-2.234 49.876 17.59 51.933 44.173s-17.92 49.761-44.51 51.645c-26.348 1.865-49.262-17.886-51.301-44.222s17.558-49.381 43.878-51.596"/><path fill="#000" d="M180.368 235.248c1.06.017 2.073.214 3.118.381 1.583 1.299 1.832 1.61 2.539 3.523-.096.997-.233 2.009-.755 2.884-3.255 5.438-30.88 34.902-35.361 36.318-4.086-2.015-8.91-9.01-12.15-12.456-2.353-2.161-5.765-5.446-5.836-8.88-.013-.635-.023-1.259.442-1.717.669-.66 1.397-.678 2.279-.619 6.719.451 12.357 7.964 16.533 12.482 9.776-10.593 19.218-21.506 29.191-31.916"/></svg>
